docs/assets/images/components/input.svg

<?xml version="1.0" encoding="UTF-8"?>
<svg width="53px" height="46px" viewBox="0 0 53 46" version="1.1" xmlns="http://www.w3.org/2000/svg" xmlns:xlink="http://www.w3.org/1999/xlink">
    <!-- Generator: sketchtool 51.1 (57501) - http://www.bohemiancoding.com/sketch -->
    <title>6B812D25-9236-49A2-819E-C65D559C34E8</title>
    <desc>Created with sketchtool.</desc>
    <defs>
        <polygon id="path-1" points="0 0 52.0179915 0 52.0179915 47.798 0 47.798"></polygon>
    </defs>
    <g id="Page-1" stroke="none" stroke-width="1" fill="none" fill-rule="evenodd">
        <g id="icon-source" transform="translate(-694.000000, -1254.000000)">
            <g id="Group" transform="translate(87.000000, 66.000000)">
                <g id="Group-6-Copy-3" transform="translate(0.000000, 587.000000)">
                    <g id="Group-3-Copy-2" transform="translate(188.000000, 197.000000)">
                        <g id="icon/component/input" transform="translate(413.000000, 394.000000)">
                            <g id="Group-12" stroke-width="1" fill-rule="evenodd" transform="translate(6.000000, -4.000000)">
                                <polygon id="Fill-1" fill="#EEF5FF" points="1 39.502 52.3079224 39.502 52.3079224 16 1 16"></polygon>
                                <polygon id="Fill-2" fill="#CADEFF" points="1 39.552 52.3079224 39.552 52.3079224 35 1 35"></polygon>
                                <g id="Group-11" transform="translate(0.000000, 0.797700)">
                                    <mask id="mask-2" fill="white">
                                        <use xlink:href="#path-1"></use>
                                    </mask>
                                    <g id="Clip-4"></g>
                                    <rect id="Rectangle" fill="#5590EB" fill-rule="nonzero" mask="url(#mask-2)" x="34" y="20" width="1" height="12"></rect>
                                    <polygon id="Stroke-3" stroke="#457AE6" stroke-width="2" stroke-linecap="square" stroke-linejoin="round" points="1 39 52 39 52 15 1 15"></polygon>
                                    <path d="M12.279,27.098 L11.91,25.692 C11.824,25.379 11.719,24.975 11.596,24.479 C11.473,23.983 11.392,23.627 11.353,23.412 C11.318,23.612 11.249,23.94 11.145,24.397 C11.042,24.854 10.812,25.754 10.457,27.098 L12.279,27.098 Z M13.181,30.602 L12.759,28.996 L9.976,28.996 L9.543,30.602 L7,30.602 L9.795,22 L12.883,22 L15.713,30.602 L13.181,30.602 Z" id="Fill-7" fill="#5590EB"></path>
                                    <path d="M18.988,29.256 C19.265,29.256 19.503,29.168 19.7,28.992 C19.897,28.817 19.996,28.588 19.996,28.307 L19.996,27.791 L19.468,27.815 C18.715,27.842 18.338,28.119 18.338,28.647 C18.338,29.053 18.554,29.256 18.988,29.256 Z M20.687,30.756 L20.248,29.877 L20.201,29.877 C19.892,30.26 19.578,30.522 19.258,30.662 C18.937,30.803 18.523,30.873 18.015,30.873 C17.39,30.873 16.898,30.686 16.539,30.311 C16.179,29.936 16,29.408 16,28.729 C16,28.022 16.246,27.495 16.738,27.15 C17.23,26.804 17.943,26.61 18.877,26.567 L19.984,26.531 L19.984,26.438 C19.984,25.891 19.715,25.617 19.175,25.617 C18.691,25.617 18.076,25.781 17.33,26.11 L16.668,24.598 C17.441,24.199 18.418,24 19.597,24 C20.449,24 21.108,24.211 21.575,24.633 C22.042,25.055 22.275,25.645 22.275,26.402 L22.275,30.756 L20.687,30.756 Z" id="Fill-8" fill="#5590EB"></path>
                                    <path d="M25.988,29.256 C26.265,29.256 26.503,29.168 26.7,28.992 C26.897,28.817 26.996,28.588 26.996,28.307 L26.996,27.791 L26.468,27.815 C25.715,27.842 25.338,28.119 25.338,28.647 C25.338,29.053 25.554,29.256 25.988,29.256 Z M27.687,30.756 L27.248,29.877 L27.201,29.877 C26.892,30.26 26.578,30.522 26.258,30.662 C25.937,30.803 25.523,30.873 25.015,30.873 C24.39,30.873 23.898,30.686 23.539,30.311 C23.179,29.936 23,29.408 23,28.729 C23,28.022 23.246,27.495 23.738,27.15 C24.23,26.804 24.943,26.61 25.877,26.567 L26.984,26.531 L26.984,26.438 C26.984,25.891 26.715,25.617 26.175,25.617 C25.691,25.617 25.076,25.781 24.33,26.11 L23.668,24.598 C24.441,24.199 25.418,24 26.597,24 C27.449,24 28.108,24.211 28.575,24.633 C29.042,25.055 29.275,25.645 29.275,26.402 L29.275,30.756 L27.687,30.756 Z" id="Fill-9" fill="#5590EB"></path>
                                </g>
                            </g>
                            <polygon id="Fill-9" fill="#97BDFF" fill-rule="evenodd" points="55.144 43.591 48.423 47.423 44.591 54.144 34 33"></polygon>
                            <polygon id="Fill-11" fill="#6DA3F2" fill-rule="evenodd" points="55.144 43.591 48.423 47.423 34 33"></polygon>
                            <path d="M36.2451903,35.2451903 L44.6523245,52.0292942 L47.5585707,46.9319872 C47.6473342,46.7763036 47.7763036,46.6473342 47.9319872,46.5585707 L53.0292942,43.6523245 L36.2451903,35.2451903 Z M45.4640107,54.6435942 C45.0683594,55.3375326 44.0589352,55.3103634 43.7011851,54.5961469 L33.1101851,33.4521469 C32.6794636,32.5922494 33.5922494,31.6794636 34.4521469,32.1101851 L55.5961469,42.7011851 C56.3103634,43.0589352 56.3375326,44.0683594 55.6435942,44.4640107 L49.1604159,48.1604159 L45.4640107,54.6435942 Z" id="Stroke-13" fill="#457AE6" fill-rule="nonzero"></path>
                            <polygon id="Stroke-25" fill="#457AE6" fill-rule="nonzero" points="48 48.4142136 49.4142136 47 55.7484271 53.3342136 54.3342136 54.7484271"></polygon>
                        </g>
                    </g>
                </g>
            </g>
        </g>
    </g>
</svg>

<svg width="53" height="46" xmlns="http://www.w3.org/2000/svg" xmlns:xlink="http://www.w3.org/1999/xlink"><defs><path id="a" d="M0 0h52.018v47.798H0z"/></defs><g fill="none" fill-rule="evenodd"><path fill="#EEF5FF" d="M1 25.502h51.308V2H1z"/><path fill="#CADEFF" d="M1 25.552h51.308V21H1z"/><g transform="translate(0 -13.202)"><mask id="b" fill="#fff"><use xlink:href="#a"/></mask><path fill="#5590EB" fill-rule="nonzero" mask="url(#b)" d="M34 20h1v12h-1z"/><path stroke="#457AE6" stroke-width="2" stroke-linecap="square" stroke-linejoin="round" d="M1 39h51V15H1z"/><path d="M12.279 27.098l-.369-1.406a51.472 51.472 0 0 1-.314-1.213 19.646 19.646 0 0 1-.243-1.067c-.035.2-.104.528-.208.985a96.23 96.23 0 0 1-.688 2.701h1.822zm.902 3.504l-.422-1.606H9.976l-.433 1.606H7L9.795 22h3.088l2.83 8.602h-2.532zM18.988 29.256c.277 0 .515-.088.712-.264a.874.874 0 0 0 .296-.685v-.516l-.528.024c-.753.027-1.13.304-1.13.832 0 .406.216.609.65.609zm1.699 1.5l-.439-.879h-.047c-.309.383-.623.645-.943.785-.321.141-.735.211-1.243.211-.625 0-1.117-.187-1.476-.562-.36-.375-.539-.903-.539-1.582 0-.707.246-1.234.738-1.579.492-.346 1.205-.54 2.139-.583l1.107-.036v-.093c0-.547-.269-.821-.809-.821-.484 0-1.099.164-1.845.493l-.662-1.512c.773-.399 1.75-.598 2.929-.598.852 0 1.511.211 1.978.633.467.422.7 1.012.7 1.769v4.354h-1.588zM25.988 29.256c.277 0 .515-.088.712-.264a.874.874 0 0 0 .296-.685v-.516l-.528.024c-.753.027-1.13.304-1.13.832 0 .406.216.609.65.609zm1.699 1.5l-.439-.879h-.047c-.309.383-.623.645-.943.785-.321.141-.735.211-1.243.211-.625 0-1.117-.187-1.476-.562-.36-.375-.539-.903-.539-1.582 0-.707.246-1.234.738-1.579.492-.346 1.205-.54 2.139-.583l1.107-.036v-.093c0-.547-.269-.821-.809-.821-.484 0-1.099.164-1.845.493l-.662-1.512c.773-.399 1.75-.598 2.929-.598.852 0 1.511.211 1.978.633.467.422.7 1.012.7 1.769v4.354h-1.588z" fill="#5590EB"/></g><path fill="#97BDFF" d="M49.144 33.591l-6.721 3.832-3.832 6.721L28 23z"/><path fill="#6DA3F2" d="M49.144 33.591l-6.721 3.832L28 23z"/><path d="M30.245 25.245l8.407 16.784 2.907-5.097a1 1 0 0 1 .373-.373l5.097-2.907-16.784-8.407zm9.219 19.399a1 1 0 0 1-1.763-.048l-10.59-21.144c-.432-.86.481-1.773 1.341-1.342l21.144 10.591a1 1 0 0 1 .048 1.763L43.16 38.16l-3.696 6.484z" fill="#457AE6" fill-rule="nonzero"/><path fill="#457AE6" fill-rule="nonzero" d="M42 38.414L43.414 37l6.334 6.334-1.414 1.414z"/></g></svg>
